static/img/kroki/642e2dd498f2b88327ca77ffb6337ebe.svg

<?xml version="1.0" encoding="us-ascii" standalone="no"?><svg xmlns="http://www.w3.org/2000/svg" xmlns:xlink="http://www.w3.org/1999/xlink" contentStyleType="text/css" height="927px" preserveAspectRatio="none" style="width:382px;height:927px;" version="1.1" viewBox="0 0 382 927" width="382px" zoomAndPan="magnify"><defs/><g><!--class aws_cloudfront_function--><g id="elem_aws_cloudfront_function"><rect codeLine="22" fill="#3D176E" height="126.6797" id="aws_cloudfront_function" rx="2.5" ry="2.5" style="stroke:#000D19;stroke-width:0.5;" width="368" x="7" y="633.85"/><ellipse cx="79.25" cy="653.7445" fill="#ADD1B2" rx="11" ry="11" style="stroke:#181818;stroke-width:1.0;"/><path d="M82.2188,659.3852 Q81.6406,659.682 81,659.8227 Q80.3594,659.9789 79.6563,659.9789 Q77.1563,659.9789 75.8281,658.3383 Q74.5156,656.682 74.5156,653.557 Q74.5156,650.432 75.8281,648.7758 Q77.1563,647.1195 79.6563,647.1195 Q80.3594,647.1195 81,647.2758 Q81.6563,647.432 82.2188,647.7289 L82.2188,650.4477 Q81.5938,649.8695 81,649.6039 Q80.4063,649.3227 79.7813,649.3227 Q78.4375,649.3227 77.75,650.4008 Q77.0625,651.4633 77.0625,653.557 Q77.0625,655.6508 77.75,656.7289 Q78.4375,657.7914 79.7813,657.7914 Q80.4063,657.7914 81,657.5258 Q81.5938,657.2445 82.2188,656.6664 L82.2188,659.3852 Z " fill="#000000"/><text fill="#D9B8FF" font-family="Helvetica" font-size="17" lengthAdjust="spacing" textLength="205" x="104.75" y="659.6298">aws_cloudfront_function</text><line style="stroke:#000D19;stroke-width:0.5;" x1="8" x2="374" y1="673.6391" y2="673.6391"/><text fill="#D9B8FF" font-family="sans-serif" font-size="14" font-weight="bold" lengthAdjust="spacing" textLength="121" x="18" y="695.6342">function_config</text><text fill="#D9B8FF" font-family="sans-serif" font-size="14" lengthAdjust="spacing" textLength="225" x="139" y="695.6342">: aws_cloudfront_function_config</text><text fill="#D9B8FF" font-family="sans-serif" font-size="14" font-weight="bold" lengthAdjust="spacing" textLength="116" x="18" y="721.9311">function_stage</text><text fill="#D9B8FF" font-family="sans-serif" font-size="14" lengthAdjust="spacing" textLength="48" x="134" y="721.9311">: string</text><text fill="#D9B8FF" font-family="sans-serif" font-size="14" font-weight="bold" lengthAdjust="spacing" textLength="121" x="18" y="748.2279">function_status</text><text fill="#D9B8FF" font-family="sans-serif" font-size="14" lengthAdjust="spacing" textLength="48" x="139" y="748.2279">: string</text></g><!--class aws_cloudfront_function_config--><g id="elem_aws_cloudfront_function_config"><rect codeLine="27" fill="#3D176E" height="100.3828" id="aws_cloudfront_function_config" rx="2.5" ry="2.5" style="stroke:#000D19;stroke-width:0.5;" width="306" x="38" y="820.53"/><ellipse cx="53" cy="840.4245" fill="#ADD1B2" rx="11" ry="11" style="stroke:#181818;stroke-width:1.0;"/><path d="M55.9688,846.0652 Q55.3906,846.362 54.75,846.5027 Q54.1094,846.6589 53.4063,846.6589 Q50.9063,846.6589 49.5781,845.0183 Q48.2656,843.362 48.2656,840.237 Q48.2656,837.112 49.5781,835.4558 Q50.9063,833.7995 53.4063,833.7995 Q54.1094,833.7995 54.75,833.9558 Q55.4063,834.112 55.9688,834.4089 L55.9688,837.1277 Q55.3438,836.5495 54.75,836.2839 Q54.1563,836.0027 53.5313,836.0027 Q52.1875,836.0027 51.5,837.0808 Q50.8125,838.1433 50.8125,840.237 Q50.8125,842.3308 51.5,843.4089 Q52.1875,844.4714 53.5313,844.4714 Q54.1563,844.4714 54.75,844.2058 Q55.3438,843.9245 55.9688,843.3464 L55.9688,846.0652 Z " fill="#000000"/><text fill="#D9B8FF" font-family="Helvetica" font-size="17" lengthAdjust="spacing" textLength="264" x="72" y="846.3098">aws_cloudfront_function_config</text><line style="stroke:#000D19;stroke-width:0.5;" x1="39" x2="343" y1="860.3191" y2="860.3191"/><text fill="#D9B8FF" font-family="sans-serif" font-size="14" font-weight="bold" lengthAdjust="spacing" textLength="73" x="49" y="882.3142">comment</text><text fill="#D9B8FF" font-family="sans-serif" font-size="14" lengthAdjust="spacing" textLength="48" x="122" y="882.3142">: string</text><text fill="#D9B8FF" font-family="sans-serif" font-size="14" font-weight="bold" lengthAdjust="spacing" textLength="61" x="49" y="908.6111">runtime</text><text fill="#D9B8FF" font-family="sans-serif" font-size="14" lengthAdjust="spacing" textLength="48" x="110" y="908.6111">: string</text></g><!--class aws_resource--><g id="elem_aws_resource"><rect codeLine="31" fill="#3D176E" height="74.0859" id="aws_resource" rx="2.5" ry="2.5" style="stroke:#000D19;stroke-width:0.5;" width="155" x="113.5" y="438.76"/><ellipse cx="128.5" cy="458.6545" fill="#ADD1B2" rx="11" ry="11" style="stroke:#181818;stroke-width:1.0;"/><path d="M131.4688,464.2952 Q130.8906,464.592 130.25,464.7327 Q129.6094,464.8889 128.9063,464.8889 Q126.4063,464.8889 125.0781,463.2483 Q123.7656,461.592 123.7656,458.467 Q123.7656,455.342 125.0781,453.6858 Q126.4063,452.0295 128.9063,452.0295 Q129.6094,452.0295 130.25,452.1858 Q130.9063,452.342 131.4688,452.6389 L131.4688,455.3577 Q130.8438,454.7795 130.25,454.5139 Q129.6563,454.2327 129.0313,454.2327 Q127.6875,454.2327 127,455.3108 Q126.3125,456.3733 126.3125,458.467 Q126.3125,460.5608 127,461.6389 Q127.6875,462.7014 129.0313,462.7014 Q129.6563,462.7014 130.25,462.4358 Q130.8438,462.1545 131.4688,461.5764 L131.4688,464.2952 Z " fill="#000000"/><text fill="#D9B8FF" font-family="Helvetica" font-size="17" lengthAdjust="spacing" textLength="113" x="147.5" y="464.5398">aws_resource</text><line style="stroke:#000D19;stroke-width:0.5;" x1="114.5" x2="267.5" y1="478.5491" y2="478.5491"/><text fill="#D9B8FF" font-family="sans-serif" font-size="14" font-weight="bold" lengthAdjust="spacing" textLength="26" x="124.5" y="500.5442">arn</text><text fill="#D9B8FF" font-family="sans-serif" font-size="14" lengthAdjust="spacing" textLength="48" x="150.5" y="500.5442">: string</text></g><!--class resource--><g id="elem_resource"><rect codeLine="34" fill="#3D176E" height="310.7578" id="resource" rx="2.5" ry="2.5" style="stroke:#000D19;stroke-width:0.5;" width="227" x="77.5" y="7"/><ellipse cx="146.25" cy="26.8945" fill="#ADD1B2" rx="11" ry="11" style="stroke:#181818;stroke-width:1.0;"/><path d="M149.2188,32.5352 Q148.6406,32.832 148,32.9727 Q147.3594,33.1289 146.6563,33.1289 Q144.1563,33.1289 142.8281,31.4883 Q141.5156,29.832 141.5156,26.707 Q141.5156,23.582 142.8281,21.9258 Q144.1563,20.2695 146.6563,20.2695 Q147.3594,20.2695 148,20.4258 Q148.6563,20.582 149.2188,20.8789 L149.2188,23.5977 Q148.5938,23.0195 148,22.7539 Q147.4063,22.4727 146.7813,22.4727 Q145.4375,22.4727 144.75,23.5508 Q144.0625,24.6133 144.0625,26.707 Q144.0625,28.8008 144.75,29.8789 Q145.4375,30.9414 146.7813,30.9414 Q147.4063,30.9414 148,30.6758 Q148.5938,30.3945 149.2188,29.8164 L149.2188,32.5352 Z " fill="#000000"/><text fill="#D9B8FF" font-family="Helvetica" font-size="17" lengthAdjust="spacing" textLength="71" x="171.75" y="32.7798">resource</text><line style="stroke:#000D19;stroke-width:0.5;" x1="78.5" x2="303.5" y1="46.7891" y2="46.7891"/><text fill="#D9B8FF" font-family="sans-serif" font-size="14" font-weight="bold" lengthAdjust="spacing" textLength="29" x="88.5" y="68.7842">age</text><text fill="#D9B8FF" font-family="sans-serif" font-size="14" lengthAdjust="spacing" textLength="66" x="117.5" y="68.7842">: duration</text><text fill="#D9B8FF" font-family="sans-serif" font-size="14" font-weight="bold" lengthAdjust="spacing" textLength="43" x="88.5" y="95.0811">atime</text><text fill="#D9B8FF" font-family="sans-serif" font-size="14" lengthAdjust="spacing" textLength="70" x="131.5" y="95.0811">: datetime</text><text fill="#D9B8FF" font-family="sans-serif" font-size="14" font-weight="bold" lengthAdjust="spacing" textLength="43" x="88.5" y="121.3779">ctime</text><text fill="#D9B8FF" font-family="sans-serif" font-size="14" lengthAdjust="spacing" textLength="70" x="131.5" y="121.3779">: datetime</text><text fill="#D9B8FF" font-family="sans-serif" font-size="14" font-weight="bold" lengthAdjust="spacing" textLength="14" x="88.5" y="147.6748">id</text><text fill="#D9B8FF" font-family="sans-serif" font-size="14" lengthAdjust="spacing" textLength="48" x="102.5" y="147.6748">: string</text><text fill="#D9B8FF" font-family="sans-serif" font-size="14" font-weight="bold" lengthAdjust="spacing" textLength="33" x="88.5" y="173.9717">kind</text><text fill="#D9B8FF" font-family="sans-serif" font-size="14" lengthAdjust="spacing" textLength="48" x="121.5" y="173.9717">: string</text><text fill="#D9B8FF" font-family="sans-serif" font-size="14" font-weight="bold" lengthAdjust="spacing" textLength="90" x="88.5" y="200.2686">last_access</text><text fill="#D9B8FF" font-family="sans-serif" font-size="14" lengthAdjust="spacing" textLength="66" x="178.5" y="200.2686">: duration</text><text fill="#D9B8FF" font-family="sans-serif" font-size="14" font-weight="bold" lengthAdjust="spacing" textLength="90" x="88.5" y="226.5654">last_update</text><text fill="#D9B8FF" font-family="sans-serif" font-size="14" lengthAdjust="spacing" textLength="66" x="178.5" y="226.5654">: duration</text><text fill="#D9B8FF" font-family="sans-serif" font-size="14" font-weight="bold" lengthAdjust="spacing" textLength="48" x="88.5" y="252.8623">mtime</text><text fill="#D9B8FF" font-family="sans-serif" font-size="14" lengthAdjust="spacing" textLength="70" x="136.5" y="252.8623">: datetime</text><text fill="#D9B8FF" font-family="sans-serif" font-size="14" font-weight="bold" lengthAdjust="spacing" textLength="43" x="88.5" y="279.1592">name</text><text fill="#D9B8FF" font-family="sans-serif" font-size="14" lengthAdjust="spacing" textLength="48" x="131.5" y="279.1592">: string</text><text fill="#D9B8FF" font-family="sans-serif" font-size="14" font-weight="bold" lengthAdjust="spacing" textLength="34" x="88.5" y="305.4561">tags</text><text fill="#D9B8FF" font-family="sans-serif" font-size="14" lengthAdjust="spacing" textLength="171" x="122.5" y="305.4561">: dictionary[string, string]</text></g><!--link aws_cloudfront_function to aws_cloudfront_function_config--><g id="link_aws_cloudfront_function_aws_cloudfront_function_config"><path codeLine="46" d="M191,760.6 C191,778.24 191,797.31 191,814.5 " fill="none" id="aws_cloudfront_function-to-aws_cloudfront_function_config" style="stroke:#FFAF37;stroke-width:2.0;"/><polygon fill="#FFAF37" points="191,819.25,195,810.25,191,814.25,187,810.25,191,819.25" style="stroke:#FFAF37;stroke-width:2.0;"/></g><!--reverse link aws_resource to aws_cloudfront_function--><g id="link_aws_resource_aws_cloudfront_function"><path codeLine="47" d="M191,533.87 C191,564.49 191,602.29 191,633.7 " fill="none" id="aws_resource-backto-aws_cloudfront_function" style="stroke:#FFAF37;stroke-width:2.0;"/><polygon fill="none" points="184,534.03,191,514.03,198,534.03,184,534.03" style="stroke:#FFAF37;stroke-width:2.0;"/></g><!--reverse link resource to aws_resource--><g id="link_resource_aws_resource"><path codeLine="48" d="M191,338.98 C191,376.79 191,413 191,438.52 " fill="none" id="resource-backto-aws_resource" style="stroke:#FFAF37;stroke-width:2.0;"/><polygon fill="none" points="184,339.18,191,319.18,198,339.18,184,339.18" style="stroke:#FFAF37;stroke-width:2.0;"/></g><!--SRC=[XPDRQnin48NV_Ii4UJDTi1CQnwK44aDeNq9f-XQ26KiZMtWbcP4Kurx-UwLTEsXlzjlkd4zdpensDqeWGxtp1wPHhv3So6sLsG61PWz4Th-mfILs9IN8crbRVBB6NmIUGIFxXkKxUiMXJVpQABurw1oxpgH7uDirsM14RUy9Z8iI6fzHYnASU_2Ur2fupCA8-UfEoZRPDhsw4TFPBNOmImBfY4mc4p6Tjv6BhSxE_K6ygD_8fldIdgt7JinEYuewcp8HMSZEe2TzCECF44APDVkSrNxMcSWWDUel6n1sdsW9fSlRE8-4rXzskEXCXVCx8MUzyFSXcAVDCTYx9Izj49BY24iP3FVA6lPdD1wVNfRS6gdMu_6N8Vn8v6USXpMc8ov-KgOj-U0oxT_vC4VtAXEtMiSFjs5CmNYbSS2GqDb07AlZGAO7Qo9rR148KlDKERaBy9YUKuwUcXADMF4oceNOoo-1y_Y3jZfKIjWbhvQYU_eOqCtDnbNNZghQ5z3XjTO-7PctEEhGJHV5_QLhRQpnwz-YA8PEZ7gmK-a_]--></g></svg>

<svg xmlns="http://www.w3.org/2000/svg" width="382" height="927" preserveAspectRatio="none" style="width:382px;height:927px"><rect width="368" height="126.68" x="7" y="633.85" fill="#3D176E" rx="2.5" ry="2.5" style="stroke:#000d19;stroke-width:.5"/><circle cx="79.25" cy="653.745" r="11" fill="#ADD1B2" style="stroke:#181818;stroke-width:1"/><path d="M82.219 659.385q-.578.297-1.219.438-.64.156-1.344.156-2.5 0-3.828-1.64-1.312-1.657-1.312-4.782t1.312-4.781q1.328-1.656 3.828-1.656.703 0 1.344.156.656.156 1.219.453v2.719q-.625-.578-1.219-.844-.594-.281-1.219-.281-1.344 0-2.031 1.078-.688 1.062-.688 3.156 0 2.094.688 3.172.688 1.062 2.031 1.062.625 0 1.219-.265.594-.281 1.219-.86v2.72Z"/><text x="104.75" y="659.63" fill="#D9B8FF" font-family="Helvetica" font-size="17" textLength="205">aws_cloudfront_function</text><path d="M8 673.639h366" style="stroke:#000d19;stroke-width:.5"/><text x="18" y="695.634" fill="#D9B8FF" font-family="sans-serif" font-size="14" font-weight="bold" textLength="121">function_config</text><text x="139" y="695.634" fill="#D9B8FF" font-family="sans-serif" font-size="14" textLength="225">: aws_cloudfront_function_config</text><text x="18" y="721.931" fill="#D9B8FF" font-family="sans-serif" font-size="14" font-weight="bold" textLength="116">function_stage</text><text x="134" y="721.931" fill="#D9B8FF" font-family="sans-serif" font-size="14" textLength="48">: string</text><text x="18" y="748.228" fill="#D9B8FF" font-family="sans-serif" font-size="14" font-weight="bold" textLength="121">function_status</text><text x="139" y="748.228" fill="#D9B8FF" font-family="sans-serif" font-size="14" textLength="48">: string</text><rect width="306" height="100.383" x="38" y="820.53" fill="#3D176E" rx="2.5" ry="2.5" style="stroke:#000d19;stroke-width:.5"/><circle cx="53" cy="840.424" r="11" fill="#ADD1B2" style="stroke:#181818;stroke-width:1"/><path d="M55.969 846.065q-.578.297-1.219.438-.64.156-1.344.156-2.5 0-3.828-1.64-1.312-1.657-1.312-4.782t1.312-4.781q1.328-1.657 3.828-1.657.703 0 1.344.157.656.156 1.219.453v2.719q-.625-.579-1.219-.844-.594-.281-1.219-.281-1.343 0-2.031 1.078-.688 1.062-.688 3.156 0 2.094.688 3.172.688 1.062 2.031 1.062.625 0 1.219-.265.594-.282 1.219-.86v2.72Z"/><text x="72" y="846.31" fill="#D9B8FF" font-family="Helvetica" font-size="17" textLength="264">aws_cloudfront_function_config</text><path d="M39 860.319h304" style="stroke:#000d19;stroke-width:.5"/><text x="49" y="882.314" fill="#D9B8FF" font-family="sans-serif" font-size="14" font-weight="bold" textLength="73">comment</text><text x="122" y="882.314" fill="#D9B8FF" font-family="sans-serif" font-size="14" textLength="48">: string</text><text x="49" y="908.611" fill="#D9B8FF" font-family="sans-serif" font-size="14" font-weight="bold" textLength="61">runtime</text><text x="110" y="908.611" fill="#D9B8FF" font-family="sans-serif" font-size="14" textLength="48">: string</text><rect width="155" height="74.086" x="113.5" y="438.76" fill="#3D176E" rx="2.5" ry="2.5" style="stroke:#000d19;stroke-width:.5"/><circle cx="128.5" cy="458.654" r="11" fill="#ADD1B2" style="stroke:#181818;stroke-width:1"/><path d="M131.469 464.295q-.578.297-1.219.438-.64.156-1.344.156-2.5 0-3.828-1.64-1.312-1.657-1.312-4.782t1.312-4.781q1.328-1.656 3.828-1.656.703 0 1.344.156.656.156 1.219.453v2.719q-.625-.579-1.219-.844-.594-.281-1.219-.281-1.344 0-2.031 1.078-.688 1.062-.688 3.156 0 2.094.688 3.172.688 1.062 2.031 1.062.625 0 1.219-.265.594-.281 1.219-.86v2.72Z"/><text x="147.5" y="464.54" fill="#D9B8FF" font-family="Helvetica" font-size="17" textLength="113">aws_resource</text><path d="M114.5 478.549h153" style="stroke:#000d19;stroke-width:.5"/><text x="124.5" y="500.544" fill="#D9B8FF" font-family="sans-serif" font-size="14" font-weight="bold" textLength="26">arn</text><text x="150.5" y="500.544" fill="#D9B8FF" font-family="sans-serif" font-size="14" textLength="48">: string</text><rect width="227" height="310.758" x="77.5" y="7" fill="#3D176E" rx="2.5" ry="2.5" style="stroke:#000d19;stroke-width:.5"/><circle cx="146.25" cy="26.895" r="11" fill="#ADD1B2" style="stroke:#181818;stroke-width:1"/><path d="M149.219 32.535q-.578.297-1.219.438-.64.156-1.344.156-2.5 0-3.828-1.64-1.312-1.657-1.312-4.782t1.312-4.781q1.328-1.656 3.828-1.656.703 0 1.344.156.656.156 1.219.453v2.719q-.625-.578-1.219-.844-.594-.281-1.219-.281-1.344 0-2.031 1.078-.688 1.062-.688 3.156 0 2.094.688 3.172.688 1.062 2.031 1.062.625 0 1.219-.265.594-.281 1.219-.86v2.72Z"/><text x="171.75" y="32.78" fill="#D9B8FF" font-family="Helvetica" font-size="17" textLength="71">resource</text><path d="M78.5 46.789h225" style="stroke:#000d19;stroke-width:.5"/><text x="88.5" y="68.784" fill="#D9B8FF" font-family="sans-serif" font-size="14" font-weight="bold" textLength="29">age</text><text x="117.5" y="68.784" fill="#D9B8FF" font-family="sans-serif" font-size="14" textLength="66">: duration</text><text x="88.5" y="95.081" fill="#D9B8FF" font-family="sans-serif" font-size="14" font-weight="bold" textLength="43">atime</text><text x="131.5" y="95.081" fill="#D9B8FF" font-family="sans-serif" font-size="14" textLength="70">: datetime</text><text x="88.5" y="121.378" fill="#D9B8FF" font-family="sans-serif" font-size="14" font-weight="bold" textLength="43">ctime</text><text x="131.5" y="121.378" fill="#D9B8FF" font-family="sans-serif" font-size="14" textLength="70">: datetime</text><text x="88.5" y="147.675" fill="#D9B8FF" font-family="sans-serif" font-size="14" font-weight="bold" textLength="14">id</text><text x="102.5" y="147.675" fill="#D9B8FF" font-family="sans-serif" font-size="14" textLength="48">: string</text><text x="88.5" y="173.972" fill="#D9B8FF" font-family="sans-serif" font-size="14" font-weight="bold" textLength="33">kind</text><text x="121.5" y="173.972" fill="#D9B8FF" font-family="sans-serif" font-size="14" textLength="48">: string</text><text x="88.5" y="200.269" fill="#D9B8FF" font-family="sans-serif" font-size="14" font-weight="bold" textLength="90">last_access</text><text x="178.5" y="200.269" fill="#D9B8FF" font-family="sans-serif" font-size="14" textLength="66">: duration</text><text x="88.5" y="226.565" fill="#D9B8FF" font-family="sans-serif" font-size="14" font-weight="bold" textLength="90">last_update</text><text x="178.5" y="226.565" fill="#D9B8FF" font-family="sans-serif" font-size="14" textLength="66">: duration</text><text x="88.5" y="252.862" fill="#D9B8FF" font-family="sans-serif" font-size="14" font-weight="bold" textLength="48">mtime</text><text x="136.5" y="252.862" fill="#D9B8FF" font-family="sans-serif" font-size="14" textLength="70">: datetime</text><text x="88.5" y="279.159" fill="#D9B8FF" font-family="sans-serif" font-size="14" font-weight="bold" textLength="43">name</text><text x="131.5" y="279.159" fill="#D9B8FF" font-family="sans-serif" font-size="14" textLength="48">: string</text><text x="88.5" y="305.456" fill="#D9B8FF" font-family="sans-serif" font-size="14" font-weight="bold" textLength="34">tags</text><text x="122.5" y="305.456" fill="#D9B8FF" font-family="sans-serif" font-size="14" textLength="171">: dictionary[string, string]</text><path fill="none" d="M191 760.6v53.9" style="stroke:#ffaf37;stroke-width:2"/><path fill="#FFAF37" d="m191 819.25 4-9-4 4-4-4 4 9z" style="stroke:#ffaf37;stroke-width:2"/><path fill="none" d="M191 533.87v99.83m-7-99.67 7-20 7 20h-14zm7-195.05v99.54m-7-99.34 7-20 7 20h-14z" style="stroke:#ffaf37;stroke-width:2"/></svg>
